X: 41682
T: Ur-Chnoc Chein Mhic Cainte
R: waltz
M: 3/4
K: Dmajor
A2|d4 ed|c4 A2|G4 EF|D4 DE|F3G A2|c3d e2|
d4 c2|A4 (3(ABc)|d3e d2|c4 A2|G2E2F2|D4 DE|
F3G AF|G2 E3F|D4 D2|D4 AG||F2A2d2|d4 de|
f4 ed|dc3 A2|d3e f2|e3c e2|d4 c2|d4 (3(ABc)|
d3c AF|G3A B2|B4 AG|F4 D2|F3G AF|GE3 F2|D4 D2|D4||

